X:202
T:Frost is all over, The
R:jig
H:See also #46
H:Other tunes by the same name: #67, #206, #263
D:Planxty
Z:id:hn-jig-202
M:6/8
K:D
AFD DFA|ded B2A|ABA F2D|GFG EFG|
AFD DFA|ded B2A|ABA F2E|1 FDD D3:|2 FDD D2e||
|:fdd ede|fdd d2e|~f3 def|~g3 e2g|
fed B2d|A2d F2G|ABA F2E|1 FDD D2e:|2 FDD D3||
P:variations
|:AFD DFA|Add B2A|ABA ~F3|GFG ~E3|
AFD DFA|Add B2A|ABA F2E|1 EDD D3:|2 EDD D2e||
|:fdd ede|~f3 d2e|fef def|gfg efg|
fed B2A|AdF G2A|ABA F2E|1 EDD D2e:|2 EDD D3||
W:see #206

